public/wave/wave-haikei.svg

<?xml version="1.0" encoding="UTF-8" standalone="no"?>
<svg
   id="visual"
   viewBox="0 0 960 150"
   width="960"
   height="150"
   version="1.1"
   sodipodi:docname="wave-haikei.svg"
   xmlns:inkscape="http://www.inkscape.org/namespaces/inkscape"
   xmlns:sodipodi="http://sodipodi.sourceforge.net/DTD/sodipodi-0.dtd"
   xmlns="http://www.w3.org/2000/svg"
   xmlns:svg="http://www.w3.org/2000/svg">
  <defs
     id="defs15" />
  <sodipodi:namedview
     id="namedview13"
     pagecolor="#505050"
     bordercolor="#eeeeee"
     borderopacity="1"
     inkscape:showpageshadow="0"
     inkscape:pageopacity="0"
     inkscape:pagecheckerboard="0"
     inkscape:deskcolor="#505050"
     showgrid="false" />
  <path
     d="m 0,57 14.5,-3.3 c 14.5,-3.4 43.5,-10 72.7,-12 29.1,-2 58.5,0.6 87.6,0 C 204,41 233,37 262,38.5 c 29,1.5 58,8.5 87,8.2 29,-0.4 58,-8 87.2,-10 29.1,-2 58.5,1.6 87.6,2.5 C 553,40 582,38 611,40.7 c 29,2.6 58,10 87,13 29,3 58,1.6 87.2,-1.4 29.1,-3 58.5,-7.6 87.6,-8.5 C 902,43 931,46 945.5,47.5 L 960,49 V 23 h -14.5 c -14.5,0 -43.5,0 -72.7,1.8 -29.1,1.9 -58.5,5.5 -87.6,8 C 756,35.3 727,36.7 698,34.3 669,32 640,26 611,22.5 582,19 553,18 523.8,17.5 494.7,17 465.3,17 436.2,21.3 407,25.7 378,34.3 349,33.8 320,33.3 291,23.7 262,21.3 233,19 204,24 174.8,24.3 145.7,24.7 116.3,20.3 87.2,20.7 58,21 29,26 14.5,28.5 L 0,31 Z"
     fill="#ffdee5"
     id="path4" />
  <path
     d="m 0,72 14.5,-2.3 c 14.5,-2.4 43.5,-7 72.7,-6.5 29.1,0.5 58.5,6.1 87.6,5.1 29.2,-1 58.2,-8.6 87.2,-8.6 29,0 58,7.6 87,9.6 29,2 58,-1.6 87.2,-4.1 29.1,-2.5 58.5,-3.9 87.6,-5.5 C 553,58 582,56 611,59.5 640,63 669,72 698,76 c 29,4 58,3 87.2,-1 29.1,-4 58.5,-11 87.6,-13.3 29.2,-2.4 58.2,0 72.7,1.1 L 960,64 V 47 L 945.5,45.5 C 931,44 902,41 872.8,41.8 843.7,42.7 814.3,47.3 785.2,50.3 756,53.3 727,54.7 698,51.7 669,48.7 640,41.3 611,38.7 582,36 553,38 523.8,37.2 494.7,36.3 465.3,32.7 436.2,34.7 407,36.7 378,44.3 349,44.7 320,45 291,38 262,36.5 233,35 204,39 174.8,39.7 c -29.1,0.6 -58.5,-2 -87.6,0 -29.2,2 -58.2,8.6 -72.7,12 L 0,55 Z"
     fill="#ffbdcb"
     id="path6" />
  <path
     d="m 0,112 14.5,2.3 c 14.5,2.4 43.5,7 72.7,7.5 29.1,0.5 58.5,-3.1 87.6,-5.1 29.2,-2 58.2,-2.4 87.2,-3.5 29,-1.2 58,-3.2 87,-6.7 29,-3.5 58,-8.5 87.2,-9.5 29.1,-1 58.5,2 87.6,3.5 29.2,1.5 58.2,1.5 87.2,1.2 29,-0.4 58,-1 87,-2 29,-1 58,-2.4 87.2,1.1 29.1,3.5 58.5,11.9 87.6,14.9 29.2,3 58.2,0.6 72.7,-0.5 L 960,114 V 62 L 945.5,60.8 C 931,59.7 902,57.3 872.8,59.7 843.7,62 814.3,69 785.2,73 756,77 727,78 698,74 669,70 640,61 611,57.5 582,54 553,56 523.8,57.7 c -29.1,1.6 -58.5,3 -87.6,5.5 -29.2,2.5 -58.2,6.1 -87.2,4.1 -29,-2 -58,-9.6 -87,-9.6 -29,0 -58,7.6 -87.2,8.6 -29.1,1 -58.5,-4.6 -87.6,-5.1 C 58,60.7 29,65.3 14.5,67.7 L 0,70 Z"
     fill="#ff9bb2"
     id="path8" />
  <path
     d="m 0,151 h 14.5 c 14.5,0 43.5,0 72.7,0 29.1,0 58.5,0 87.6,0 29.2,0 58.2,0 87.2,0 29,0 58,0 87,0 29,0 58,0 87.2,0 29.1,0 58.5,0 87.6,0 29.2,0 58.2,0 87.2,0 29,0 58,0 87,0 29,0 58,0 87.2,0 29.1,0 58.5,0 87.6,0 29.2,0 58.2,0 72.7,0 H 960 v -39 l -14.5,1.2 c -14.5,1.1 -43.5,3.5 -72.7,0.5 -29.1,-3 -58.5,-11.4 -87.6,-14.9 C 756,95.3 727,96.7 698,97.7 c -29,1 -58,1.6 -87,2 C 582,100 553,100 523.8,98.5 494.7,97 465.3,94 436.2,95 407,96 378,101 349,104.5 c -29,3.5 -58,5.5 -87,6.7 -29,1.1 -58,1.5 -87.2,3.5 -29.1,2 -58.5,5.6 -87.6,5.1 C 58,119.3 29,114.7 14.5,112.3 L 0,110 Z"
     fill="#ff7799"
     id="path10" />
</svg>

<svg id="visual" viewBox="0 0 960 150" width="960" height="150" xmlns="http://www.w3.org/2000/svg" xmlns:xlink="http://www.w3.org/1999/xlink" version="1.1"><path d="M0 33L14.5 30.5C29 28 58 23 87.2 22.7C116.3 22.3 145.7 26.7 174.8 26.3C204 26 233 21 262 23.3C291 25.7 320 35.3 349 35.8C378 36.3 407 27.7 436.2 23.3C465.3 19 494.7 19 523.8 19.5C553 20 582 21 611 24.5C640 28 669 34 698 36.3C727 38.7 756 37.3 785.2 34.8C814.3 32.3 843.7 28.7 872.8 26.8C902 25 931 25 945.5 25L960 25L960 0L945.5 0C931 0 902 0 872.8 0C843.7 0 814.3 0 785.2 0C756 0 727 0 698 0C669 0 640 0 611 0C582 0 553 0 523.8 0C494.7 0 465.3 0 436.2 0C407 0 378 0 349 0C320 0 291 0 262 0C233 0 204 0 174.8 0C145.7 0 116.3 0 87.2 0C58 0 29 0 14.5 0L0 0Z" fill="#ffffff"></path><path d="M0 57L14.5 53.7C29 50.3 58 43.7 87.2 41.7C116.3 39.7 145.7 42.3 174.8 41.7C204 41 233 37 262 38.5C291 40 320 47 349 46.7C378 46.3 407 38.7 436.2 36.7C465.3 34.7 494.7 38.3 523.8 39.2C553 40 582 38 611 40.7C640 43.3 669 50.7 698 53.7C727 56.7 756 55.3 785.2 52.3C814.3 49.3 843.7 44.7 872.8 43.8C902 43 931 46 945.5 47.5L960 49L960 23L945.5 23C931 23 902 23 872.8 24.8C843.7 26.7 814.3 30.3 785.2 32.8C756 35.3 727 36.7 698 34.3C669 32 640 26 611 22.5C582 19 553 18 523.8 17.5C494.7 17 465.3 17 436.2 21.3C407 25.7 378 34.3 349 33.8C320 33.3 291 23.7 262 21.3C233 19 204 24 174.8 24.3C145.7 24.7 116.3 20.3 87.2 20.7C58 21 29 26 14.5 28.5L0 31Z" fill="#ffdee5"></path><path d="M0 72L14.5 69.7C29 67.3 58 62.7 87.2 63.2C116.3 63.7 145.7 69.3 174.8 68.3C204 67.3 233 59.7 262 59.7C291 59.7 320 67.3 349 69.3C378 71.3 407 67.7 436.2 65.2C465.3 62.7 494.7 61.3 523.8 59.7C553 58 582 56 611 59.5C640 63 669 72 698 76C727 80 756 79 785.2 75C814.3 71 843.7 64 872.8 61.7C902 59.3 931 61.7 945.5 62.8L960 64L960 47L945.5 45.5C931 44 902 41 872.8 41.8C843.7 42.7 814.3 47.3 785.2 50.3C756 53.3 727 54.7 698 51.7C669 48.7 640 41.3 611 38.7C582 36 553 38 523.8 37.2C494.7 36.3 465.3 32.7 436.2 34.7C407 36.7 378 44.3 349 44.7C320 45 291 38 262 36.5C233 35 204 39 174.8 39.7C145.7 40.3 116.3 37.7 87.2 39.7C58 41.7 29 48.3 14.5 51.7L0 55Z" fill="#ffbdcb"></path><path d="M0 112L14.5 114.3C29 116.7 58 121.3 87.2 121.8C116.3 122.3 145.7 118.7 174.8 116.7C204 114.7 233 114.3 262 113.2C291 112 320 110 349 106.5C378 103 407 98 436.2 97C465.3 96 494.7 99 523.8 100.5C553 102 582 102 611 101.7C640 101.3 669 100.7 698 99.7C727 98.7 756 97.3 785.2 100.8C814.3 104.3 843.7 112.7 872.8 115.7C902 118.7 931 116.3 945.5 115.2L960 114L960 62L945.5 60.8C931 59.7 902 57.3 872.8 59.7C843.7 62 814.3 69 785.2 73C756 77 727 78 698 74C669 70 640 61 611 57.5C582 54 553 56 523.8 57.7C494.7 59.3 465.3 60.7 436.2 63.2C407 65.7 378 69.3 349 67.3C320 65.3 291 57.7 262 57.7C233 57.7 204 65.3 174.8 66.3C145.7 67.3 116.3 61.7 87.2 61.2C58 60.7 29 65.3 14.5 67.7L0 70Z" fill="#ff9bb2"></path><path d="M0 151L14.5 151C29 151 58 151 87.2 151C116.3 151 145.7 151 174.8 151C204 151 233 151 262 151C291 151 320 151 349 151C378 151 407 151 436.2 151C465.3 151 494.7 151 523.8 151C553 151 582 151 611 151C640 151 669 151 698 151C727 151 756 151 785.2 151C814.3 151 843.7 151 872.8 151C902 151 931 151 945.5 151L960 151L960 112L945.5 113.2C931 114.3 902 116.7 872.8 113.7C843.7 110.7 814.3 102.3 785.2 98.8C756 95.3 727 96.7 698 97.7C669 98.7 640 99.3 611 99.7C582 100 553 100 523.8 98.5C494.7 97 465.3 94 436.2 95C407 96 378 101 349 104.5C320 108 291 110 262 111.2C233 112.3 204 112.7 174.8 114.7C145.7 116.7 116.3 120.3 87.2 119.8C58 119.3 29 114.7 14.5 112.3L0 110Z" fill="#ff7799"></path></svg>
